X: 20
T: Richmond Regatta Minuet
%R: minuet, waltz
B: Straight & Skillern "Minuets for the year 1777", p.20
F: http://www.vwml.org/browse/browse-collections-dance-tune-books/browse-straight1777
Z: 2014 John Chambers <jc:trillian.mit.edu>
M: 3/4
L: 1/8
K: C
% - - - - - - - - - - - - - - - - - - - - - - - - - - - - -
% Voice 1 formatted for a US-letter/A4 page size.
V: 1
|:\
g3 f e2 | Te3 d c2 | .G2 .A2 .B2 | TcBcd c2 |\
g3 f e2 | e3 d c2 | G2 AfdB | {B2}c6 :|
[e4c4G4] fd | [e4c4G4] fd | (3(efg) f2 e2 | dcBA G2 |\
[e4c4G4] fd | [e4c4G4] fd | eg f2 e2 | Te4 d2 |
g3 f e2 | e3 d c2 | .G2 .A2 .B2 | TcBcd c2 |\
[g3e3] [fd] [e2c2] | [e3G3] [dF] [c2E2] | .G2 .A2 .B2 | [c6G6E6] |]
% - - - - - - - - - - - - - - - - - - - - - - - - - - - - -
% Voice 2 preserves the original staff breaks.
V: 2 clef=bass middle=d
|:\
c2 e2 g2 | c'2 g2 a2 | .e2 .f2 .g2 | c6 |\
c2 e2 g2 | c'ceg a2 | e2 f2 g2 | c'2 g2 c2 :|
cegeBg | cegeBg | (3(cde) d2 c2 | g4 G2 |\
c2 e2 g2 | c2 e2 g2 | c2 B2 c2 | g4 G2 |\
g3 f e2 |
e3 d c2 | .e2 .f2 .g2 | c6- |\
c6- | c6 | .e2 .f2 .g2 | c'2 g2 c2 |]
% - - - - - - - - - - - - - - - - - - - - - - - - - - - - -

%%sep 1 1 500
%%sep 1 1 500
